src/global/assets/icons/gatsby-icon.svg

<svg xmlns="http://www.w3.org/2000/svg" width="48" height="48" viewBox="0 0 48 48">
  <path fill="#5E3994" d="M24,2 C36.1,2 46,11.9 46,24 C46,36.1 36.1,46 24,46 C11.9,46 2,36.1 2,24 C2,11.9 11.9,2 24,2 Z M41,23.5 L29.8636364,23.5 L29.8636364,26.6818182 L37.5,26.6818182 C36.3863636,31.4545455 32.8863636,35.4318182 28.2727273,37.0227273 L9.97727273,18.7272727 C11.8863636,13.1590909 17.2954545,9.18181818 23.5,9.18181818 C28.2727273,9.18181818 32.5681818,11.5681818 35.2727273,15.2272727 L37.6590909,13.1590909 C34.4772727,8.86363636 29.3863636,6 23.5,6 C15.2272727,6 8.22727273,11.8863636 6.47727273,19.6818182 L27.4772727,40.6818182 C35.1136364,38.7727273 41,31.7727273 41,23.5 Z M6,23.6590909 C6,28.1136364 7.75,32.4090909 11.0909091,35.75 C14.4318182,39.0909091 18.8863636,40.8409091 23.1818182,40.8409091 L6,23.6590909 Z"/>
</svg>

<svg xmlns="http://www.w3.org/2000/svg" viewBox="0 0 48 48"><path fill="#5E3994" d="M24 2c12.1 0 22 9.9 22 22s-9.9 22-22 22S2 36.1 2 24 11.9 2 24 2Zm17 21.5H29.864v3.182H37.5c-1.114 4.773-4.614 8.75-9.227 10.34L9.977 18.728c1.91-5.568 7.318-9.545 13.523-9.545 4.773 0 9.068 2.386 11.773 6.045l2.386-2.068C34.477 8.864 29.386 6 23.5 6 15.227 6 8.227 11.886 6.477 19.682l21 21C35.114 38.772 41 31.772 41 23.5Zm-35 .16c0 4.454 1.75 8.75 5.09 12.09 3.342 3.34 7.796 5.09 12.092 5.09L6 23.66Z"/></svg>
